images/games/kitten_cards/on_collect.svg

<?xml version="1.0" encoding="UTF-8" standalone="no"?>
<svg width="296px" height="200px" viewBox="0 0 296 200" version="1.1" xmlns="http://www.w3.org/2000/svg" xmlns:xlink="http://www.w3.org/1999/xlink" xmlns:sketch="http://www.bohemiancoding.com/sketch/ns">
    <!-- Generator: Sketch 3.3.3 (12081) - http://www.bohemiancoding.com/sketch -->
    <title>on_collect</title>
    <desc>Created with Sketch.</desc>
    <defs></defs>
    <g id="Assets" stroke="none" stroke-width="1" fill="none" fill-rule="evenodd" sketch:type="MSPage">
        <g id="on_collect" sketch:type="MSArtboardGroup" fill="#B71C1C">
            <path d="M84,7.57795712 L4.64358856,28.8414435 C1.31603005,29.7330601 -0.660469434,33.1615005 0.233505325,36.4978597 L42.2894692,193.452854 C43.1829653,196.787426 46.607325,198.770626 49.9369215,197.878463 L105.464102,183 L98.2414396,183 C90.3727426,183 84,176.613009 84,168.745883 L84,7.57795712 L84,7.57795712 Z" id="Card-Copy-2" sketch:type="MSShapeGroup"></path>
            <path d="M212,7.57795712 L291.356411,28.8414435 C294.686008,29.7336062 296.659991,33.163287 295.766495,36.4978597 L253.710531,193.452854 C252.816556,196.789213 249.390637,198.77008 246.063079,197.878463 L190.535898,183 L197.75856,183 C205.625728,183 212,176.614272 212,168.745883 L212,7.57795712 L212,7.57795712 Z" id="Card-Copy" sketch:type="MSShapeGroup"></path>
            <path d="M92,6.25411662 C92,2.80006339 94.7964976,0 98.2414396,0 L197.75856,0 C201.205612,0 204,2.80191299 204,6.25411662 L204,168.745883 C204,172.199937 201.203502,175 197.75856,175 L98.2414396,175 C94.7943877,175 92,172.198087 92,168.745883 L92,6.25411662 Z M148,120 C165.673112,120 180,105.673112 180,88 C180,70.326888 165.673112,56 148,56 C130.326888,56 116,70.326888 116,88 C116,105.673112 130.326888,120 148,120 Z" id="Card" sketch:type="MSShapeGroup"></path>
            <path d="M165.652914,75.9580827 C165.854293,76.5074626 165.953388,77.1407924 165.98716,77.8875125 C166.039443,79.043495 165.930233,80.5300223 165.692843,82.2208392 C165.260444,85.3006092 164.462048,88.5528893 163.80006,90.0452667 L164.240638,88.906142 C164.240638,88.906142 167.856201,95.3911133 161.522239,102.426845 C160.381386,103.694099 158.896601,104.689936 157.319343,105.627358 C155.558865,106.673675 153.688194,107.51392 151.818832,108.172661 C150.691852,108.569795 149.802754,108.821641 149.265101,108.946061 L149.032017,109 L148.792892,109 L148.345494,109 L148.106348,109 L147.873245,108.946052 C147.335556,108.821612 146.446399,108.569725 145.319347,108.172526 C143.449866,107.513678 141.579078,106.673293 139.818491,105.626799 C138.241646,104.689521 136.783863,103.669343 135.6168,102.427186 C131.991943,98.5690918 130.572228,92.3700693 133.499485,87.8967676 L132.891134,88.926232 C132.891134,88.926232 131.676312,84.7576809 131.270112,82.4733144 C130.976448,80.8218196 130.920457,76.885811 131.110859,76.332834 C131.455744,75.3311988 132.178036,74.5478449 133.322207,74.3946233 C134.937028,74.1778227 136.771977,74.7328961 138.938069,75.8432241 C139.761427,76.2652731 140.617281,76.7632143 141.504238,77.3267096 C142.355573,77.8675748 143.180077,78.4321425 144.048377,79.0559354 C144.328596,79.2572467 145.230142,79.9161305 145.283721,79.951269 L144.450911,79.3250893 C144.450911,79.3250893 146.724757,78.7448828 147.862254,78.7594163 L149.251043,78.759578 C150.810392,78.740198 152.345278,79.1027586 153.871598,79.7935201 L152.669138,79.2951663 C152.669138,79.2951663 154.636047,77.7630065 155.42332,77.2066106 C156.323932,76.5701135 157.189467,76.013575 158.02372,75.5470895 C160.066709,74.4047196 161.831795,73.8288913 163.43951,74.0447174 C164.576933,74.1972302 165.289381,74.9663334 165.652914,75.9580827 Z" id="Shape" sketch:type="MSShapeGroup"></path>
        </g>
    </g>
</svg>

<svg width="296" height="200" viewBox="0 0 296 200" xmlns="http://www.w3.org/2000/svg"><title>on_collect</title><g fill="#B71C1C" fill-rule="evenodd"><path d="M84 7.578L4.644 28.84C1.316 29.734-.66 33.163.234 36.5L42.29 193.453c.893 3.334 4.317 5.318 7.647 4.425L105.464 183H98.24C90.374 183 84 176.613 84 168.746V7.578zM212 7.578l79.356 21.263c3.33.894 5.304 4.323 4.41 7.658L253.71 193.453c-.893 3.336-4.32 5.317-7.647 4.425L190.536 183h7.223c7.866 0 14.24-6.386 14.24-14.254V7.578z"/><path d="M92 6.254C92 2.8 94.796 0 98.24 0h99.52c3.446 0 6.24 2.802 6.24 6.254v162.492c0 3.454-2.796 6.254-6.24 6.254H98.24c-3.446 0-6.24-2.802-6.24-6.254V6.254zM148 120c17.673 0 32-14.327 32-32 0-17.673-14.327-32-32-32-17.673 0-32 14.327-32 32 0 17.673 14.327 32 32 32zm19.188-46.026c.25.683.367 1.445.407 2.334.06 1.33-.063 3.016-.33 4.93-.485 3.482-1.39 7.305-1.547 7.283 2.26 4 1.708 10.596-3.244 15.54-2.447 2.443-5.552 4.337-9.002 5.787-1.19.5-2.34.91-3.41 1.24-.66.202-2.15.485-2.15.485h-.495s-1.493-.283-2.15-.485c-1.073-.33-2.222-.74-3.412-1.24-3.45-1.45-6.554-3.344-9-5.787-4.952-4.945-5.318-11.833-3.257-15.508-.134.012-1.145-3.723-1.725-7.01-.33-1.87-.51-3.508-.494-4.806.01-.883.106-1.643.342-2.334.455-1.332 1.434-2.4 3.02-2.615 2.376-.32 5.017.672 8.23 2.567 1.213.717 4.266 2.826 4.266 2.826 1.21-.376 2.43-.567 3.646-.55h1.523c1.838-.024 3.64.404 3.606.52 0 0 2.083-1.683 3.99-2.938 3.128-2.056 5.728-3.143 8.168-2.813 1.576.21 2.54 1.258 3.018 2.574z"/></g></svg>
